assets/icons/icon_level.svg

<svg width="30" height="30" viewBox="0 0 30 30" fill="none" xmlns="http://www.w3.org/2000/svg">
<path d="M23.4449 15.5984C23.155 15.9305 22.1744 16.9216 21.1147 17.9602C20.8827 15.456 20.5875 12.5195 20.403 10.2948C20.3081 9.27199 20.2343 8.39684 20.1605 7.69039H22.8228C23.2393 7.69039 23.35 7.72202 23.3869 7.74838C23.4238 7.77474 23.4449 7.82219 23.4449 8.11742V15.5984ZM20.1974 24.5028C20.0534 24.6564 19.8769 24.7758 19.6808 24.8525C19.4846 24.9291 19.2739 24.9609 19.0639 24.9456H8.93114C8.6432 24.9536 8.35702 24.8983 8.09283 24.7835C7.82864 24.6687 7.59289 24.4973 7.40226 24.2813C7.25966 24.1108 7.15682 23.9107 7.10119 23.6955C7.04557 23.4803 7.03856 23.2554 7.08067 23.0371L7.18611 22.452H20.4821C20.5295 22.9106 20.5559 23.2006 20.5664 23.2797C20.603 23.7227 20.4713 24.1632 20.1974 24.5133M9.24746 9.96789L9.44779 8.74479C9.56378 8.0647 9.44779 7.2001 8.92059 6.8047L8.83624 6.74143C8.57791 6.56219 7.91892 6.10879 7.93473 5.73448C7.95055 5.36017 7.96109 5.13875 9.1631 5.13875C9.917 5.13875 12.2261 5.11239 14.2717 5.0913L17.7143 5.0544C18.0177 5.07694 18.3049 5.20019 18.5303 5.40458C18.7557 5.60898 18.9064 5.8828 18.9585 6.1826C18.9848 6.4462 19.143 8.14905 19.3539 10.4002C19.6491 13.6214 19.9338 16.6844 20.1552 19.0199C20.1364 19.0816 20.13 19.1465 20.1363 19.2107C20.1427 19.275 20.1616 19.3373 20.1921 19.3942C20.2606 20.1586 20.3239 20.8387 20.3819 21.4028H7.36536C7.86092 18.44 8.83097 12.5459 9.24746 9.98371M22.8228 6.63599H20.0656C20.0339 6.34603 20.0181 6.15097 20.0076 6.07189C19.9269 5.5133 19.6536 5.00048 19.2348 4.62213C18.816 4.24379 18.2781 4.02372 17.7143 4L14.2769 4.0369C12.2419 4.05799 9.93809 4.08435 9.1631 4.08435C8.05599 4.08435 6.94887 4.20561 6.88033 5.68704C6.84343 6.59382 7.75548 7.26863 8.19833 7.5955L8.27214 7.65349C8.43627 7.93142 8.48545 8.26244 8.40921 8.57608L8.20888 9.79919C7.76603 12.4984 6.7169 18.8934 6.25297 21.6506C6.20188 21.7294 6.17276 21.8204 6.16862 21.9142C6.16562 21.9475 6.16562 21.9811 6.16862 22.0144C6.10535 22.4045 6.05263 22.6945 6.02627 22.8421C5.95005 23.2106 5.95786 23.5916 6.04913 23.9567C6.14041 24.3218 6.31279 24.6616 6.55347 24.9509C6.84025 25.2888 7.19858 25.5587 7.6025 25.741C8.00643 25.9234 8.44586 26.0136 8.88896 26.0053H19.0639C19.4253 26.0229 19.786 25.9597 20.1199 25.8201C20.4537 25.6806 20.7521 25.4683 20.9934 25.1987C21.2307 24.9117 21.4076 24.5799 21.5136 24.2229C21.6196 23.866 21.6524 23.4914 21.6103 23.1215C21.6103 22.9528 21.4363 21.3976 21.2412 19.3098C24.4888 16.1467 24.4993 16.0307 24.4993 15.7618V8.12269C24.4993 6.63599 23.3975 6.63599 22.8228 6.63599Z" fill="white"/>
<path d="M14.4351 10.7107C14.4351 10.4828 14.5257 10.2642 14.6868 10.103C14.848 9.94187 15.0666 9.85134 15.2945 9.85134H15.6688C15.8967 9.85134 16.1153 9.94187 16.2764 10.103C16.4376 10.2642 16.5281 10.4828 16.5281 10.7107V16.958C16.5281 17.1859 16.4376 17.4045 16.2764 17.5656C16.1153 17.7268 15.8967 17.8173 15.6688 17.8173H15.2945C15.0666 17.8173 14.848 17.7268 14.6868 17.5656C14.5257 17.4045 14.4351 17.1859 14.4351 16.958V10.7107ZM15.2945 18.8717H15.6688C16.1759 18.8703 16.6619 18.6682 17.0205 18.3097C17.379 17.9511 17.5811 17.4651 17.5825 16.958V10.7107C17.5818 10.4578 17.5312 10.2075 17.4334 9.97425C17.3357 9.741 17.1928 9.52937 17.013 9.35152C16.8332 9.17368 16.62 9.03313 16.3857 8.93795C16.1514 8.84278 15.9006 8.79485 15.6477 8.79694H15.2734C14.7699 8.80385 14.2894 9.00836 13.9353 9.36636C13.5812 9.72436 13.3821 10.2072 13.3807 10.7107V16.958C13.3821 17.4651 13.5842 17.9511 13.9428 18.3097C14.3014 18.6682 14.7873 18.8703 15.2945 18.8717Z" fill="white"/>
</svg>

<svg xmlns="http://www.w3.org/2000/svg" width="30" height="30" fill="none" viewBox="0 0 30 30"><path fill="#fff" d="M23.445 15.598c-.29.332-1.27 1.324-2.33 2.362-.232-2.504-.527-5.44-.712-7.665-.095-1.023-.169-1.898-.242-2.605h2.662c.416 0 .527.032.564.058s.058.074.058.37zm-3.248 8.905a1.41 1.41 0 0 1-1.133.443H8.93a1.97 1.97 0 0 1-1.529-.665 1.5 1.5 0 0 1-.321-1.244l.105-.585h13.296c.047.459.074.749.084.828.037.443-.095.883-.369 1.233M9.247 9.968l.2-1.223c.117-.68 0-1.545-.526-1.94l-.085-.064c-.258-.179-.917-.632-.901-1.007s.026-.595 1.228-.595c.754 0 3.063-.027 5.109-.048l3.442-.037a1.365 1.365 0 0 1 1.245 1.129c.026.263.184 1.966.395 4.217.295 3.221.58 6.284.801 8.62a.5.5 0 0 0 .037.374c.069.765.132 1.445.19 2.009H7.365c.496-2.963 1.466-8.857 1.882-11.42m13.576-3.347h-2.757c-.032-.29-.048-.485-.058-.564A2.42 2.42 0 0 0 17.714 4l-3.437.037c-2.035.021-4.339.047-5.114.047-1.107 0-2.214.122-2.283 1.603-.037.907.875 1.582 1.318 1.909l.074.057c.164.278.213.61.137.923L8.21 9.8c-.443 2.7-1.492 9.094-1.956 11.852a.53.53 0 0 0-.084.263 1 1 0 0 0 0 .1c-.064.39-.116.68-.143.828a2.5 2.5 0 0 0 .527 2.109 2.99 2.99 0 0 0 2.336 1.054h10.175a2.43 2.43 0 0 0 1.93-.806 2.77 2.77 0 0 0 .616-2.078c0-.168-.174-1.723-.369-3.811 3.248-3.163 3.258-3.28 3.258-3.548v-7.64c0-1.486-1.101-1.486-1.676-1.486"/><path fill="#fff" d="M14.435 10.71a.86.86 0 0 1 .86-.859h.374a.86.86 0 0 1 .86.86v6.247a.86.86 0 0 1-.86.86h-.375a.86.86 0 0 1-.859-.86zm.86 8.162h.374a1.92 1.92 0 0 0 1.913-1.914v-6.247a1.92 1.92 0 0 0-1.934-1.914h-.375a1.92 1.92 0 0 0-1.892 1.914v6.247a1.92 1.92 0 0 0 1.913 1.914"/></svg>
